X: 10793
M: 6/8
L: 1/8
K: D
uA |\
{c}(.d2.d) {e}dcB | A>BG {G}F>ED | {c}(.d2.d) d>cd | e>fd c>BA |\
{c}(.d2.d) {e}d>cB | A>BG {G}F>ED | E>CA, A,>B,C | D3 D3 |]
vf/ug/ |\
afd def | gec Ace | fdA GBe | ecA FGA |\
vf/ug/ |\
afd afd | gec gec | fdA fdA | ecA ecA |\


